src/16/actions/edit-paste-in-place.svg

<svg xmlns="http://www.w3.org/2000/svg" width="16" height="16" viewBox="0 0 16 16">
 <defs>
  <style id="current-color-scheme" type="text/css">
   .ColorScheme-Text { color:#565656; } .ColorScheme-Highlight { color:#5294e2; }
  </style>
 </defs>
 <path style="fill:currentColor" class="ColorScheme-Text" d="M 8 1 C 5.2386 1 3 3.0887156 3 5.6660156 C 3.002 6.2218156 3.1108125 6.7726688 3.3203125 7.2929688 C 3.4720125 7.6841688 3.77685 8.1171156 3.96875 8.4160156 L 8 15 L 12.03125 8.4199219 C 12.34825 8.0519219 12.484594 7.6611687 12.683594 7.2929688 C 12.891594 6.7725688 12.999 6.2216156 13 5.6660156 C 13 3.0887156 10.761 1 8 1 z M 8 3 C 8.9153 3 9.7801094 3.4178656 10.349609 4.1347656 C 10.473609 4.2914656 10.582828 4.4602719 10.673828 4.6386719 C 10.855828 4.9962719 10.964188 5.3869094 10.992188 5.7871094 C 10.997188 5.8580094 11 5.929 11 6 C 11 6.3006 10.954234 6.5996188 10.865234 6.8867188 C 10.816234 7.0426187 10.753687 7.1941438 10.679688 7.3398438 C 10.670687 7.3582437 10.663297 7.3763312 10.654297 7.3945312 C 10.136297 8.3811312 9.1143 8.9993 8 9 C 6.8857 8.9993 5.8637031 8.3811312 5.3457031 7.3945312 C 5.3012031 7.3099312 5.2608094 7.2231656 5.2246094 7.1347656 L 5.21875 7.1210938 C 5.18575 7.0384937 5.1564594 6.9544406 5.1308594 6.8691406 C 5.1268594 6.8574406 5.1229406 6.8457844 5.1191406 6.8339844 C 5.0969406 6.7540844 5.078 6.6732969 5.0625 6.5917969 C 5.0585 6.5748969 5.0545813 6.5579156 5.0507812 6.5410156 C 5.0353813 6.4569156 5.023625 6.3722094 5.015625 6.2871094 C 5.013625 6.2728094 5.0137187 6.2585406 5.0117188 6.2441406 C 5.0047188 6.1629406 5.0007 6.0815 5 6 C 5.0002 5.9002 5.005025 5.8004719 5.015625 5.7011719 C 5.096225 4.8943719 5.4998656 4.1546906 6.1347656 3.6503906 C 6.2914656 3.5257906 6.4602719 3.4171719 6.6386719 3.3261719 C 7.0603719 3.1115719 7.5268 2.9998 8 3 z"/>
</svg>

<svg xmlns="http://www.w3.org/2000/svg" width="16" height="16"><defs><style id="current-color-scheme" type="text/css"></style></defs><path d="M8 1C5.239 1 3 3.089 3 5.666c.002.556.11 1.107.32 1.627.152.391.457.824.649 1.123L8 15l4.031-6.58c.317-.368.454-.759.653-1.127.208-.52.315-1.071.316-1.627C13 3.089 10.761 1 8 1zm0 2a3 3 0 0 1 2.865 3.887 2.965 2.965 0 0 1-.185.453c-.01.018-.017.036-.026.055A3 3 0 0 1 8 9a3 3 0 0 1-2.775-1.865l-.006-.014a3.015 3.015 0 0 1-.203-.834l-.004-.043a2.869 2.869 0 0 1 .004-.543A3 3 0 0 1 8 3z" fill="currentColor" color="#565656"/></svg>
